svg/fluentui-system-icons/ic_fluent_resize_video_20_filled.svg

<svg width="20" height="20" viewBox="0 0 20 20" fill="none" xmlns="http://www.w3.org/2000/svg">
<path d="M5.25 2C3.45507 2 2 3.45507 2 5.25V8.25C2 8.66421 2.33579 9 2.75 9C3.16421 9 3.5 8.66421 3.5 8.25V5.25C3.5 4.2835 4.2835 3.5 5.25 3.5H8.25C8.66421 3.5 9 3.16421 9 2.75C9 2.33579 8.66421 2 8.25 2H5.25ZM11.75 2C11.3358 2 11 2.33579 11 2.75C11 3.16421 11.3358 3.5 11.75 3.5H14.75C15.7165 3.5 16.5 4.2835 16.5 5.25V8.25C16.5 8.66421 16.8358 9 17.25 9C17.6642 9 18 8.66421 18 8.25V5.25C18 3.45507 16.5449 2 14.75 2H11.75ZM18 11.75C18 11.3358 17.6642 11 17.25 11C16.8358 11 16.5 11.3358 16.5 11.75V14.75C16.5 15.7165 15.7165 16.5 14.75 16.5H11.75C11.3358 16.5 11 16.8358 11 17.25C11 17.6642 11.3358 18 11.75 18H14.75C16.5449 18 18 16.5449 18 14.75V11.75ZM3.5 10H7.5C8.88071 10 10 11.1193 10 12.5V16.5C10 17.8807 8.88071 19 7.5 19H3.5C2.11929 19 1 17.8807 1 16.5V12.5C1 11.1193 2.11929 10 3.5 10ZM4.22361 12.5528C4.06861 12.4753 3.88454 12.4836 3.73713 12.5747C3.58973 12.6658 3.5 12.8267 3.5 13V16C3.5 16.1733 3.58973 16.3342 3.73713 16.4253C3.88454 16.5164 4.06861 16.5247 4.22361 16.4472L7.22361 14.9472C7.393 14.8625 7.5 14.6894 7.5 14.5C7.5 14.3106 7.393 14.1375 7.22361 14.0528L4.22361 12.5528Z" fill="#212121"/>
</svg>

<svg xmlns="http://www.w3.org/2000/svg" width="20" height="20"><path d="M5.25 2A3.25 3.25 0 0 0 2 5.25v3a.75.75 0 0 0 1.5 0v-3c0-.966.784-1.75 1.75-1.75h3a.75.75 0 0 0 0-1.5h-3Zm6.5 0a.75.75 0 0 0 0 1.5h3c.966 0 1.75.784 1.75 1.75v3a.75.75 0 0 0 1.5 0v-3A3.25 3.25 0 0 0 14.75 2h-3ZM18 11.75a.75.75 0 0 0-1.5 0v3a1.75 1.75 0 0 1-1.75 1.75h-3a.75.75 0 0 0 0 1.5h3A3.25 3.25 0 0 0 18 14.75v-3ZM3.5 10h4a2.5 2.5 0 0 1 2.5 2.5v4A2.5 2.5 0 0 1 7.5 19h-4A2.5 2.5 0 0 1 1 16.5v-4A2.5 2.5 0 0 1 3.5 10Zm.724 2.553A.5.5 0 0 0 3.5 13v3a.5.5 0 0 0 .724.447l3-1.5a.5.5 0 0 0 0-.894l-3-1.5Z"/></svg>
